X: 43
T: The South Wind
R: waltz
M: 3/4
L: 1/8
K: Gmaj
|:dc|"G"B3A G2|B2c2 d2|"D"A6-|A4 dc|"G"B3A G2|E2D2 E2| "G"G6-|1G4 dc:|]2G4 Bd||
|:"C"g4 g2|g3f e2|"G"d4 d2|d4 c2|"Em"B3A G2|1B3c d2|"D"A6-|A2 B2 d2:|2 "D" A c3 F2 |"G"  G6- | G4|]


